packages/foundations/assets/icons/functional/images/transportation/scooter_32.svg

<svg width="32" height="32" viewBox="0 0 32 32" fill="none" xmlns="http://www.w3.org/2000/svg">
<g clip-path="url(#clip0_187_930)">
<path fill-rule="evenodd" clip-rule="evenodd" d="M26 17.5C28.2093 17.5 30 19.2907 30 21.5C30 23.7093 28.2093 25.5 26 25.5C23.7907 25.5 22 23.7093 22 21.5C22 19.2907 23.7907 17.5 26 17.5ZM12 21.5C12 23.711 10.2093 25.5 8 25.5C5.85766 25.5 4 23.7476 4 21.5C3.67522 21.5 3.34189 21.5 3 21.5C2.48716 21.5 2.06449 21.114 2.00673 20.6166L2 18.5C2 15.8114 4.12244 13.6182 6.78312 13.5046L11.855 13.5L11.255 11.5H7C6.43015 11.5 6 11.0128 6 10.5C6 9.98716 6.41417 9.5 7 9.5H11.256C12.0841 9.5 12.8212 10.0103 13.1175 10.7704L15.742 19.5H18.539L24 13.129V9.5C24 8.98769 23.6195 8.50674 23 8.50674C22.587 8.50674 21.587 8.50449 20 8.5C19.4477 8.5 19 8.05228 19 7.5C19 6.98716 19.4188 6.5 20 6.5H23C24.5971 6.5 25.9036 7.74945 25.9949 9.32378L26 13.5C26 13.691 25.9453 13.8769 25.8439 14.0364L19.7593 21.1508C19.5964 21.3408 19.3754 21.5 19 21.5C18.7498 21.5 16.4164 21.5 12 21.5ZM26 19.5C24.8953 19.5 24 20.3953 24 21.5C24 22.6047 24.8953 23.5 26 23.5C27.1047 23.5 28 22.6047 28 21.5C28 20.3953 27.1047 19.5 26 19.5ZM6.00546 21.5C6 22.6714 6.9455 23.5 8 23.5C9.0545 23.5 9.99451 22.6713 9.99451 21.5H6.00546ZM12.443 15.5H7C5.40245 15.5 4.09635 16.7491 4.00509 18.3237L4 19.5H13.652L12.443 15.5Z" fill="#1A1C1F"/>
</g>
<defs>
<clipPath id="clip0_187_930">
<rect width="32" height="32" fill="white"/>
</clipPath>
</defs>
</svg>

<svg xmlns="http://www.w3.org/2000/svg" width="32" height="32" fill="none"><g clip-path="url(#a)"><path fill="#1A1C1F" fill-rule="evenodd" d="M26 17.5a4 4 0 1 1 0 8 4 4 0 0 1 0-8m-14 4c0 2.211-1.79 4-4 4-2.142 0-4-1.752-4-4H3a1 1 0 0 1-.993-.883L2 18.5a5 5 0 0 1 4.783-4.995l5.072-.005-.6-2H7c-.57 0-1-.487-1-1s.414-1 1-1h4.256a2 2 0 0 1 1.861 1.27l2.625 8.73h2.797L24 13.129V9.5a.977.977 0 0 0-1-.993L20 8.5a1 1 0 0 1-1-1c0-.513.419-1 1-1h3a3 3 0 0 1 2.995 2.824L26 13.5a1 1 0 0 1-.156.536l-6.085 7.115A.93.93 0 0 1 19 21.5zm14-2a2 2 0 1 0 0 4 2 2 0 0 0 0-4m-19.995 2c-.005 1.171.94 2 1.995 2a1.984 1.984 0 0 0 1.995-2zm6.438-6H7a3 3 0 0 0-2.995 2.824L4 19.5h9.652z" clip-rule="evenodd"/></g><defs><clipPath id="a"><path fill="#fff" d="M0 0h32v32H0z"/></clipPath></defs></svg>
